symbols/web/r_mobiledata/materialsymbolssharp/r_mobiledata_wght200gradN25_48px.svg

<svg xmlns="http://www.w3.org/2000/svg" height="48" width="48"><path d="M5.05 18.95V5H17v8.4h-2.75l2.4 5.55h-2l-2.4-5.5h-5.7v5.5Zm1.5-7h8.95v-5.4H6.55Z"/></svg>

<svg xmlns="http://www.w3.org/2000/svg" height="48" width="48"><path d="M5.05 18.95V5H17V13.4H14.25L16.65 18.95H14.65L12.25 13.45H6.55V18.95ZM6.55 11.95H15.5V6.55H6.55Z"/></svg>
